!!!COM: Anon.
!!!OTL: Estava no meu toalete
!!!OTL: Romanceiro Folclorico do Brasil
!!!CNT: Brasil
!!!OCY: Brasil
!!!ODT: <1971///
!!!PSR: Irmaos Vitale
!!!PSP: Sao Paulo, Brasil
!!!PDT: 1952///
!!!PPE: Rossini Tavares de Lima
!!!PPG: page 72
!! Romance: Conde da Alemanha
!! Place: Laranjeiras, Estado de Sergipe, Brasil
**kern
*clefG2
*k[b-e-a-]
*M3/4
*MM90
4G
=
8c
8c
8c
8c
8B-
8B-
=
4A-
4G
4G
=
8c
8c
8c
8c
8B-
8B-
=
4A-
2G
=
8c
8d
8f
8e-
8d
8c
=
2e-
4e-
=
8c
8d
8f
8e-
8d
8c
=
2e-
4e-
=
4e-
8c
8c
8e-
8e-
=
4a-
4g
4c
=
8d
8d
8f
8f
4Bn
=
4d
4d
==
*-
